TCanvas/subpad.svg

<svg xmlns="http://www.w3.org/2000/svg" viewBox="0 0 1200 800" preserveAspectRatio="none" width="1200" height="800">
 <path d="M0,0H1200V800H0Z" style="fill: white;"></path>
 <g>
  <g transform="translate(180,80)">
   <path d="M0,0H900V640H0Z" style="fill: white; stroke: black; stroke-width: 1;"></path>
   <svg x="0" y="0" overflow="hidden" width="900" height="640" viewBox="0 0 900 640">
    <g>
     <g transform="translate(23,594)">
      <path style="stroke: black; stroke-width: 1; fill: none;" d="M0,0H-22m0,3v-6M0,0H23m0,3v-6M0,0V32m3,0h-6M0,0V-32m3,0h-6"></path>
     </g>
     <g transform="translate(68,640)">
      <path style="stroke: black; stroke-width: 1; fill: none;" d="M0,0H-22m0,3v-6M0,0H23m0,3v-6"></path>
     </g>
     <g transform="translate(113,571)">
      <path style="stroke: black; stroke-width: 1; fill: none;" d="M0,0H-22m0,3v-6M0,0H23m0,3v-6M0,0V40m3,0h-6M0,0V-40m3,0h-6"></path>
     </g>
     <g transform="translate(158,412)">
      <path style="stroke: black; stroke-width: 1; fill: none;" d="M0,0H-22m0,3v-6M0,0H23m0,3v-6M0,0V72m3,0h-6M0,0V-72m3,0h-6"></path>
     </g>
     <g transform="translate(203,457)">
      <path style="stroke: black; stroke-width: 1; fill: none;" d="M0,0H-22m0,3v-6M0,0H23m0,3v-6M0,0V65m3,0h-6M0,0V-65m3,0h-6"></path>
     </g>
     <g transform="translate(248,343)">
      <path style="stroke: black; stroke-width: 1; fill: none;" d="M0,0H-23m0,3v-6M0,0H22m0,3v-6M0,0V82m3,0h-6M0,0V-82m3,0h-6"></path>
     </g>
     <g transform="translate(293,138)">
      <path style="stroke: black; stroke-width: 1; fill: none;" d="M0,0H-22m0,3v-6M0,0H23m0,3v-6M0,0V107m3,0h-6M0,0V-107m3,0h-6"></path>
     </g>
     <g transform="translate(338,366)">
      <path style="stroke: black; stroke-width: 1; fill: none;" d="M0,0H-22m0,3v-6M0,0H23m0,3v-6M0,0V79m3,0h-6M0,0V-79m3,0h-6"></path>
     </g>
     <g transform="translate(383,526)">
      <path style="stroke: black; stroke-width: 1; fill: none;" d="M0,0H-22m0,3v-6M0,0H23m0,3v-6M0,0V51m3,0h-6M0,0V-51m3,0h-6"></path>
     </g>
     <g transform="translate(428,457)">
      <path style="stroke: black; stroke-width: 1; fill: none;" d="M0,0H-22m0,3v-6M0,0H23m0,3v-6M0,0V65m3,0h-6M0,0V-65m3,0h-6"></path>
     </g>
     <g transform="translate(473,549)">
      <path style="stroke: black; stroke-width: 1; fill: none;" d="M0,0H-22m0,3v-6M0,0H23m0,3v-6M0,0V46m3,0h-6M0,0V-46m3,0h-6"></path>
     </g>
     <g transform="translate(518,480)">
      <path style="stroke: black; stroke-width: 1; fill: none;" d="M0,0H-22m0,3v-6M0,0H23m0,3v-6M0,0V60m3,0h-6M0,0V-60m3,0h-6"></path>
     </g>
     <g transform="translate(563,526)">
      <path style="stroke: black; stroke-width: 1; fill: none;" d="M0,0H-22m0,3v-6M0,0H23m0,3v-6M0,0V51m3,0h-6M0,0V-51m3,0h-6"></path>
     </g>
     <g transform="translate(608,617)">
      <path style="stroke: black; stroke-width: 1; fill: none;" d="M0,0H-22m0,3v-6M0,0H23m0,3v-6M0,0V23m3,0h-6M0,0V-23m3,0h-6"></path>
     </g>
     <g transform="translate(653,640)">
      <path style="stroke: black; stroke-width: 1; fill: none;" d="M0,0H-22m0,3v-6M0,0H23m0,3v-6"></path>
     </g>
     <g transform="translate(698,640)">
      <path style="stroke: black; stroke-width: 1; fill: none;" d="M0,0H-22m0,3v-6M0,0H23m0,3v-6"></path>
     </g>
     <g transform="translate(743,640)">
      <path style="stroke: black; stroke-width: 1; fill: none;" d="M0,0H-22m0,3v-6M0,0H23m0,3v-6"></path>
     </g>
     <g transform="translate(788,640)">
      <path style="stroke: black; stroke-width: 1; fill: none;" d="M0,0H-22m0,3v-6M0,0H23m0,3v-6"></path>
     </g>
     <g transform="translate(833,640)">
      <path style="stroke: black; stroke-width: 1; fill: none;" d="M0,0H-22m0,3v-6M0,0H23m0,3v-6"></path>
     </g>
     <g transform="translate(878,640)">
      <path style="stroke: black; stroke-width: 1; fill: none;" d="M0,0H-22m0,3v-6M0,0H23m0,3v-6"></path>
     </g>
     <path d="M19,594a4,4,0,1,0,8,0a4,4,0,1,0,-8,0zM64,640a4,4,0,1,0,8,0a4,4,0,1,0,-8,0zM109,571a4,4,0,1,0,8,0a4,4,0,1,0,-8,0zM154,412a4,4,0,1,0,8,0a4,4,0,1,0,-8,0zM199,457a4,4,0,1,0,8,0a4,4,0,1,0,-8,0zM244,343a4,4,0,1,0,8,0a4,4,0,1,0,-8,0zM289,138a4,4,0,1,0,8,0a4,4,0,1,0,-8,0zM334,366a4,4,0,1,0,8,0a4,4,0,1,0,-8,0zM379,526a4,4,0,1,0,8,0a4,4,0,1,0,-8,0zM424,457a4,4,0,1,0,8,0a4,4,0,1,0,-8,0zM469,549a4,4,0,1,0,8,0a4,4,0,1,0,-8,0zM514,480a4,4,0,1,0,8,0a4,4,0,1,0,-8,0zM559,526a4,4,0,1,0,8,0a4,4,0,1,0,-8,0zM604,617a4,4,0,1,0,8,0a4,4,0,1,0,-8,0zM649,640a4,4,0,1,0,8,0a4,4,0,1,0,-8,0zM694,640a4,4,0,1,0,8,0a4,4,0,1,0,-8,0zM739,640a4,4,0,1,0,8,0a4,4,0,1,0,-8,0zM784,640a4,4,0,1,0,8,0a4,4,0,1,0,-8,0zM829,640a4,4,0,1,0,8,0a4,4,0,1,0,-8,0zM874,640a4,4,0,1,0,8,0a4,4,0,1,0,-8,0z" style="stroke: black; fill: black;"></path>
    </g>
    <g>
     <path d="M-45,640v-18h45l11,-4l12,-5l11,-5l11,-7l11,-7l12,-8l11,-10l11,-10l11,-12l12,-12l11,-13l11,-15l11,-15l12,-16l22,-33l23,-33l11,-15l11,-16l11,-14l12,-12l11,-12l11,-9l11,-7l12,-6l11,-3h11l11,2l12,4l11,6l11,8l11,11l12,12l11,13l11,15l23,31l22,34l23,32l11,16l11,14l11,14l12,13l11,12l11,11l11,10l12,9l11,8l11,7l11,5l12,6l11,4l11,4l23,6l22,3l23,3l22,2l45,1l45,1h135" style="stroke: #ff0000; stroke-width: 3; fill: none;"></path>
    </g>
   </svg>
   <g>
    <g transform="translate(0,640)">
     <path d="M0,0h900M0,-24v24m23,-12v12m22,-12v12m23,-12v12m22,-24v24m23,-12v12m22,-12v12m23,-12v12m22,-24v24m23,-12v12m22,-12v12m23,-12v12m22,-24v24m23,-12v12m22,-12v12m23,-12v12m22,-24v24m23,-12v12m22,-12v12m23,-12v12m22,-24v24m23,-12v12m22,-12v12m23,-12v12m22,-24v24m23,-12v12m22,-12v12m23,-12v12m22,-24v24m23,-12v12m22,-12v12m23,-12v12m22,-24v24m23,-12v12m22,-12v12m23,-12v12m22,-24v24m23,-12v12m22,-12v12m23,-12v12m22,-24v24" style="stroke: black; stroke-width: 1;"></path>
     <g font-family="Arial" font-size="28" space="preserve" fill="black" text-anchor="middle">
      <text dy=".8em" transform="translate(0,6)">
       -10
      </text>
      <text dy=".8em" transform="translate(90,6)">
       -8
      </text>
      <text dy=".8em" transform="translate(180,6)">
       -6
      </text>
      <text dy=".8em" transform="translate(270,6)">
       -4
      </text>
      <text dy=".8em" transform="translate(360,6)">
       -2
      </text>
      <text dy=".8em" transform="translate(450,6)">
       0
      </text>
      <text dy=".8em" transform="translate(540,6)">
       2
      </text>
      <text dy=".8em" transform="translate(630,6)">
       4
      </text>
      <text dy=".8em" transform="translate(720,6)">
       6
      </text>
      <text dy=".8em" transform="translate(810,6)">
       8
      </text>
      <text dy=".8em" transform="translate(900,6)">
       10
      </text>
     </g>
     <g font-family="Arial" font-size="28" space="preserve" transform="translate(900,45)">
      <text fill="black" text-anchor="end" dy=".4em">
       x
      </text>
     </g>
    </g>
    <g>
     <path d="M0,0v640M36,640h-36m18,-23h-18m18,-23h-18m18,-23h-18m18,-22h-18m36,-23h-36m18,-23h-18m18,-23h-18m18,-23h-18m18,-23h-18m36,-22h-36m18,-23h-18m18,-23h-18m18,-23h-18m18,-23h-18m36,-23h-36m18,-22h-18m18,-23h-18m18,-23h-18m18,-23h-18m36,-23h-36m18,-23h-18m18,-22h-18m18,-23h-18m18,-23h-18m36,-23h-36m18,-23h-18m18,-23h-18m18,-22h-18" style="stroke: black; stroke-width: 1;"></path>
     <g font-family="Arial" font-size="28" space="preserve" fill="black" text-anchor="end">
      <text dy=".4em" transform="translate(-4,640)">
       0
      </text>
      <text dy=".4em" transform="translate(-4,526)">
       5
      </text>
      <text dy=".4em" transform="translate(-4,412)">
       10
      </text>
      <text dy=".4em" transform="translate(-4,297)">
       15
      </text>
      <text dy=".4em" transform="translate(-4,183)">
       20
      </text>
      <text dy=".4em" transform="translate(-4,69)">
       25
      </text>
     </g>
     <g font-family="Arial" font-size="28" space="preserve" transform="translate(-108,0)">
      <text fill="black" text-anchor="end" dy=".4em" transform=" rotate(270)">
       Events / ( 1 )
      </text>
     </g>
    </g>
   </g>
  </g>
  <g transform="translate(180,4)" font-family="Arial" font-size="36" space="preserve">
   <text fill="black" text-anchor="middle" dy=".4em" transform="translate(420,22)">
    Red Curve / SumW2 Histo errors
   </text>
  </g>
 </g>
</svg>

<svg xmlns="http://www.w3.org/2000/svg" viewBox="0 0 1200 800" preserveAspectRatio="none" width="1200" height="800">
 <path d="M0,0H1200V800H0Z" style="fill: white;"></path>
 <g>
  <g transform="translate(180,80)">
   <path d="M0,0H900V640H0Z" style="fill: white; stroke: black; stroke-width: 1;"></path>
   <svg x="0" y="0" overflow="hidden" width="900" height="640" viewBox="0 0 900 640">
    <g>
     <g transform="translate(23,594)">
      <path style="stroke: black; stroke-width: 1; fill: none;" d="M0,0H-22m0,3v-6M0,0H23m0,3v-6M0,0V32m3,0h-6M0,0V-32m3,0h-6"></path>
     </g>
     <g transform="translate(68,640)">
      <path style="stroke: black; stroke-width: 1; fill: none;" d="M0,0H-22m0,3v-6M0,0H23m0,3v-6"></path>
     </g>
     <g transform="translate(113,571)">
      <path style="stroke: black; stroke-width: 1; fill: none;" d="M0,0H-22m0,3v-6M0,0H23m0,3v-6M0,0V40m3,0h-6M0,0V-40m3,0h-6"></path>
     </g>
     <g transform="translate(158,412)">
      <path style="stroke: black; stroke-width: 1; fill: none;" d="M0,0H-22m0,3v-6M0,0H23m0,3v-6M0,0V72m3,0h-6M0,0V-72m3,0h-6"></path>
     </g>
     <g transform="translate(203,457)">
      <path style="stroke: black; stroke-width: 1; fill: none;" d="M0,0H-22m0,3v-6M0,0H23m0,3v-6M0,0V65m3,0h-6M0,0V-65m3,0h-6"></path>
     </g>
     <g transform="translate(248,343)">
      <path style="stroke: black; stroke-width: 1; fill: none;" d="M0,0H-23m0,3v-6M0,0H22m0,3v-6M0,0V82m3,0h-6M0,0V-82m3,0h-6"></path>
     </g>
     <g transform="translate(293,138)">
      <path style="stroke: black; stroke-width: 1; fill: none;" d="M0,0H-22m0,3v-6M0,0H23m0,3v-6M0,0V107m3,0h-6M0,0V-107m3,0h-6"></path>
     </g>
     <g transform="translate(338,366)">
      <path style="stroke: black; stroke-width: 1; fill: none;" d="M0,0H-22m0,3v-6M0,0H23m0,3v-6M0,0V79m3,0h-6M0,0V-79m3,0h-6"></path>
     </g>
     <g transform="translate(383,526)">
      <path style="stroke: black; stroke-width: 1; fill: none;" d="M0,0H-22m0,3v-6M0,0H23m0,3v-6M0,0V51m3,0h-6M0,0V-51m3,0h-6"></path>
     </g>
     <g transform="translate(428,457)">
      <path style="stroke: black; stroke-width: 1; fill: none;" d="M0,0H-22m0,3v-6M0,0H23m0,3v-6M0,0V65m3,0h-6M0,0V-65m3,0h-6"></path>
     </g>
     <g transform="translate(473,549)">
      <path style="stroke: black; stroke-width: 1; fill: none;" d="M0,0H-22m0,3v-6M0,0H23m0,3v-6M0,0V46m3,0h-6M0,0V-46m3,0h-6"></path>
     </g>
     <g transform="translate(518,480)">
      <path style="stroke: black; stroke-width: 1; fill: none;" d="M0,0H-22m0,3v-6M0,0H23m0,3v-6M0,0V60m3,0h-6M0,0V-60m3,0h-6"></path>
     </g>
     <g transform="translate(563,526)">
      <path style="stroke: black; stroke-width: 1; fill: none;" d="M0,0H-22m0,3v-6M0,0H23m0,3v-6M0,0V51m3,0h-6M0,0V-51m3,0h-6"></path>
     </g>
     <g transform="translate(608,617)">
      <path style="stroke: black; stroke-width: 1; fill: none;" d="M0,0H-22m0,3v-6M0,0H23m0,3v-6M0,0V23m3,0h-6M0,0V-23m3,0h-6"></path>
     </g>
     <g transform="translate(653,640)">
      <path style="stroke: black; stroke-width: 1; fill: none;" d="M0,0H-22m0,3v-6M0,0H23m0,3v-6"></path>
     </g>
     <g transform="translate(698,640)">
      <path style="stroke: black; stroke-width: 1; fill: none;" d="M0,0H-22m0,3v-6M0,0H23m0,3v-6"></path>
     </g>
     <g transform="translate(743,640)">
      <path style="stroke: black; stroke-width: 1; fill: none;" d="M0,0H-22m0,3v-6M0,0H23m0,3v-6"></path>
     </g>
     <g transform="translate(788,640)">
      <path style="stroke: black; stroke-width: 1; fill: none;" d="M0,0H-22m0,3v-6M0,0H23m0,3v-6"></path>
     </g>
     <g transform="translate(833,640)">
      <path style="stroke: black; stroke-width: 1; fill: none;" d="M0,0H-22m0,3v-6M0,0H23m0,3v-6"></path>
     </g>
     <g transform="translate(878,640)">
      <path style="stroke: black; stroke-width: 1; fill: none;" d="M0,0H-22m0,3v-6M0,0H23m0,3v-6"></path>
     </g>
     <path d="M19,594a4,4,0,1,0,8,0a4,4,0,1,0,-8,0zM64,640a4,4,0,1,0,8,0a4,4,0,1,0,-8,0zM109,571a4,4,0,1,0,8,0a4,4,0,1,0,-8,0zM154,412a4,4,0,1,0,8,0a4,4,0,1,0,-8,0zM199,457a4,4,0,1,0,8,0a4,4,0,1,0,-8,0zM244,343a4,4,0,1,0,8,0a4,4,0,1,0,-8,0zM289,138a4,4,0,1,0,8,0a4,4,0,1,0,-8,0zM334,366a4,4,0,1,0,8,0a4,4,0,1,0,-8,0zM379,526a4,4,0,1,0,8,0a4,4,0,1,0,-8,0zM424,457a4,4,0,1,0,8,0a4,4,0,1,0,-8,0zM469,549a4,4,0,1,0,8,0a4,4,0,1,0,-8,0zM514,480a4,4,0,1,0,8,0a4,4,0,1,0,-8,0zM559,526a4,4,0,1,0,8,0a4,4,0,1,0,-8,0zM604,617a4,4,0,1,0,8,0a4,4,0,1,0,-8,0zM649,640a4,4,0,1,0,8,0a4,4,0,1,0,-8,0zM694,640a4,4,0,1,0,8,0a4,4,0,1,0,-8,0zM739,640a4,4,0,1,0,8,0a4,4,0,1,0,-8,0zM784,640a4,4,0,1,0,8,0a4,4,0,1,0,-8,0zM829,640a4,4,0,1,0,8,0a4,4,0,1,0,-8,0zM874,640a4,4,0,1,0,8,0a4,4,0,1,0,-8,0z" style="stroke: black; fill: black;"></path>
    </g>
    <g>
     <path d="M-45,640v-18h45l11,-4l12,-5l11,-5l11,-7l11,-7l12,-8l11,-10l11,-10l11,-12l12,-12l11,-13l11,-15l11,-15l12,-16l22,-33l23,-33l11,-15l11,-16l11,-14l12,-12l11,-12l11,-9l11,-7l12,-6l11,-3h11l11,2l12,4l11,6l11,8l11,11l12,12l11,13l11,15l23,31l22,34l23,32l11,16l11,14l11,14l12,13l11,12l11,11l11,10l12,9l11,8l11,7l11,5l12,6l11,4l11,4l23,6l22,3l23,3l22,2l45,1l45,1h135" style="stroke: #ff0000; stroke-width: 3; fill: none;"></path>
    </g>
   </svg>
   <g>
    <g transform="translate(0,640)">
     <path d="M0,0h900M0,-24V0M23,-12V0M45,-12V0M68,-12V0M90,-24V0M113,-12V0M135,-12V0M158,-12V0M180,-24V0M203,-12V0M225,-12V0M248,-12V0M270,-24V0M293,-12V0M315,-12V0M338,-12V0M360,-24V0M383,-12V0M405,-12V0M428,-12V0M450,-24V0M473,-12V0M495,-12V0M518,-12V0M540,-24V0M563,-12V0M585,-12V0M608,-12V0M630,-24V0M653,-12V0M675,-12V0M698,-12V0M720,-24V0M743,-12V0M765,-12V0M788,-12V0M810,-24V0M833,-12V0M855,-12V0M878,-12V0M900,-24V0" style="stroke: black; stroke-width: 1;"></path>
     <g font-family="Arial" font-size="28" space="preserve" fill="black" text-anchor="middle">
      <text dy=".8em" transform="translate(0,6)">
       -10
      </text>
      <text dy=".8em" transform="translate(90,6)">
       -8
      </text>
      <text dy=".8em" transform="translate(180,6)">
       -6
      </text>
      <text dy=".8em" transform="translate(270,6)">
       -4
      </text>
      <text dy=".8em" transform="translate(360,6)">
       -2
      </text>
      <text dy=".8em" transform="translate(450,6)">
       0
      </text>
      <text dy=".8em" transform="translate(540,6)">
       2
      </text>
      <text dy=".8em" transform="translate(630,6)">
       4
      </text>
      <text dy=".8em" transform="translate(720,6)">
       6
      </text>
      <text dy=".8em" transform="translate(810,6)">
       8
      </text>
      <text dy=".8em" transform="translate(900,6)">
       10
      </text>
     </g>
     <g font-family="Arial" font-size="28" space="preserve" transform="translate(900,45)">
      <text fill="black" text-anchor="end" dy=".4em">
       x
      </text>
     </g>
    </g>
    <g>
     <path d="M0,0v640M36,640H0M18,617H0M18,594H0M18,571H0M18,549H0M36,526H0M18,503H0M18,480H0M18,457H0M18,434H0M36,412H0M18,389H0M18,366H0M18,343H0M18,320H0M36,297H0M18,275H0M18,252H0M18,229H0M18,206H0M36,183H0M18,160H0M18,138H0M18,115H0M18,92H0M36,69H0M18,46H0M18,23H0M18,1H0" style="stroke: black; stroke-width: 1;"></path>
     <g font-family="Arial" font-size="28" space="preserve" fill="black" text-anchor="end">
      <text dy=".4em" transform="translate(-4,640)">
       0
      </text>
      <text dy=".4em" transform="translate(-4,526)">
       5
      </text>
      <text dy=".4em" transform="translate(-4,412)">
       10
      </text>
      <text dy=".4em" transform="translate(-4,297)">
       15
      </text>
      <text dy=".4em" transform="translate(-4,183)">
       20
      </text>
      <text dy=".4em" transform="translate(-4,69)">
       25
      </text>
     </g>
     <g font-family="Arial" font-size="28" space="preserve" transform="translate(-108,0)">
      <text fill="black" text-anchor="end" dy=".4em" transform=" rotate(270)">
       Events / ( 1 )
      </text>
     </g>
    </g>
   </g>
  </g>
  <g transform="translate(180,4)" font-family="Arial" font-size="36" space="preserve">
   <text fill="black" text-anchor="middle" dy=".4em" transform="translate(420,22)">
    Red Curve / SumW2 Histo errors
   </text>
  </g>
 </g>
</svg>
